img/step__05.svg

<svg width="33" height="55" viewBox="0 0 33 55" fill="none" xmlns="http://www.w3.org/2000/svg">
<path d="M26.2727 21.4546L26.2127 29.6164L16.1927 36.3773L8.03266 30.7737L7.97266 22.7337L17.8727 16.1555L26.2727 21.4546Z" fill="#FF2B00"/>
<path d="M29.9927 0.989149H3.41271C1.85271 0.92824 0.532715 2.20734 0.532715 3.79097V51.2392C0.592715 52.8228 1.85271 54.041 3.41271 54.041H29.9927C31.5527 54.1019 32.8727 52.8228 32.8727 51.2392V3.79097C32.8127 2.20734 31.5527 0.92824 29.9927 0.989149ZM2.27271 8.90733H31.0727V43.0164H2.27271V8.90733ZM3.35271 2.81642H29.9327C30.4727 2.75551 31.0127 3.18188 31.0127 3.79097V7.08006H2.21271V3.79097C2.33271 3.18188 2.81271 2.75551 3.35271 2.81642ZM29.9927 52.1528H3.41271C2.87271 52.2137 2.33271 51.7873 2.33271 51.1783V44.8437H31.1327V51.1783C31.0127 51.7873 30.5327 52.2137 29.9927 52.1528Z" fill="black"/>
<path d="M16.9727 50.3255C17.8011 50.3255 18.4727 49.6437 18.4727 48.8028C18.4727 47.9618 17.8011 47.28 16.9727 47.28C16.1442 47.28 15.4727 47.9618 15.4727 48.8028C15.4727 49.6437 16.1442 50.3255 16.9727 50.3255Z" fill="black"/>
<path d="M26.3327 21.7592V21.6983V21.6374L26.2727 21.5765L18.2327 16.1555C18.1127 16.0946 17.9927 16.0946 17.8727 16.1555L15.0527 18.0437L12.4727 19.8101C12.4127 19.8101 12.4127 19.871 12.3527 19.871L7.97272 22.8555L7.91272 22.9164V22.9774V23.0383V30.591C7.91272 30.7128 7.97273 30.8346 8.03273 30.8955L16.0727 36.3164C16.0727 36.3164 16.1327 36.3164 16.1327 36.3774H16.1927H16.2527C16.2527 36.3774 16.3127 36.3773 16.3127 36.3164L26.2127 29.6164C26.3327 29.5555 26.3327 29.4337 26.3327 29.3119V21.7592ZM17.9927 16.7646L25.4327 21.8201L23.0927 23.4037L15.7727 18.2874L17.9927 16.7646ZM16.0727 28.0937L8.63273 23.0383L12.4727 20.4192L19.7927 25.5355L16.0727 28.0937ZM15.1127 18.6528L22.4327 23.7692L20.3927 25.1701L13.0727 20.0537L15.1127 18.6528ZM20.7527 25.7183L22.7327 24.3783L22.6727 27.5455L20.7527 28.8246V25.7183ZM8.39272 23.7083L15.7727 28.7028V35.4637L8.39272 30.4692V23.7083ZM16.4327 35.4028V28.6419L20.0927 26.1446V29.4337C20.0927 29.5555 20.1527 29.6774 20.2727 29.7383C20.3327 29.7383 20.3927 29.7992 20.4527 29.7992C20.5127 29.7992 20.5727 29.7992 20.6327 29.7383L23.2127 28.0328C23.3327 27.9719 23.3327 27.8501 23.3327 27.7892L23.3927 23.9519L25.6727 22.3683V29.1292L16.4327 35.4028Z" fill="#231F20" stroke="black" stroke-miterlimit="10"/>
<path d="M15.1128 30.3474C15.2328 30.3474 15.3528 30.2864 15.4128 30.2255C15.5328 30.0428 15.4728 29.8601 15.2928 29.7383L11.5128 27.1801C11.3328 27.0583 11.1528 27.1192 11.0328 27.3019C10.9128 27.4846 10.9728 27.6673 11.1528 27.7892L14.9328 30.3474C14.9928 30.3474 15.0528 30.3474 15.1128 30.3474Z" fill="#231F20" stroke="black" stroke-miterlimit="10"/>
<path d="M15.3527 31.5047L13.1927 30.0429C13.0127 29.921 12.8327 29.982 12.7127 30.1647C12.5927 30.3474 12.6527 30.5301 12.8327 30.652L14.9927 32.1138C15.0527 32.1747 15.1127 32.1747 15.1727 32.1747C15.2927 32.1747 15.4127 32.1138 15.4727 32.0529C15.5327 31.8092 15.4727 31.5656 15.3527 31.5047Z" fill="#231F20" stroke="black" stroke-miterlimit="10"/>
</svg>

<svg width="33" height="55" fill="none" xmlns="http://www.w3.org/2000/svg"><path d="M26.273 21.455l-.06 8.161-10.02 6.761-8.16-5.603-.06-8.04 9.9-6.579 8.4 5.3z" fill="#FF2B00"/><path d="M29.993.99H3.413C1.853.927.533 2.206.533 3.79v47.448c.06 1.584 1.32 2.802 2.88 2.802h26.58c1.56.06 2.88-1.218 2.88-2.802V3.791c-.06-1.584-1.32-2.863-2.88-2.802zM2.273 8.906h28.8v34.11h-28.8V8.906zm1.08-6.09h26.58a.982.982 0 011.08.974v3.29h-28.8V3.79c.12-.61.6-1.035 1.14-.975zm26.64 49.336H3.413a.982.982 0 01-1.08-.975v-6.334h28.8v6.334c-.12.61-.6 1.036-1.14.975z" fill="#000"/><path d="M16.973 50.325c.828 0 1.5-.681 1.5-1.522s-.672-1.523-1.5-1.523c-.829 0-1.5.682-1.5 1.523 0 .84.671 1.523 1.5 1.523z" fill="#000"/><path d="M26.333 21.76v-.122l-.06-.062-8.04-5.42a.378.378 0 00-.36 0l-2.82 1.888-2.58 1.766c-.06 0-.06.061-.12.061l-4.38 2.985-.06.06v7.675c0 .122.06.244.12.304l8.04 5.421s.06 0 .06.061h.12s.06 0 .06-.06l9.9-6.7c.12-.062.12-.183.12-.305v-7.553zm-8.34-4.995l7.44 5.055-2.34 1.584-7.32-5.117 2.22-1.522zm-1.92 11.329l-7.44-5.056 3.84-2.619 7.32 5.116-3.72 2.559zm-.96-9.441l7.32 5.116-2.04 1.401-7.32-5.116 2.04-1.401zm5.64 7.065l1.98-1.34-.06 3.168-1.92 1.279v-3.107zm-12.36-2.01l7.38 4.995v6.76l-7.38-4.994v-6.76zm8.04 11.695v-6.761l3.66-2.497v3.289c0 .121.06.243.18.304.06 0 .12.061.18.061s.12 0 .18-.06l2.58-1.706c.12-.061.12-.183.12-.244l.06-3.837 2.28-1.584v6.761l-9.24 6.274z" fill="#231F20" stroke="#000" stroke-miterlimit="10"/><path d="M15.113 30.347c.12 0 .24-.06.3-.122.12-.182.06-.365-.12-.487l-3.78-2.558c-.18-.122-.36-.06-.48.122-.12.183-.06.365.12.487l3.78 2.558h.18zm.24 1.158l-2.16-1.462c-.18-.122-.36-.061-.48.122-.12.182-.06.365.12.487l2.16 1.462c.06.06.12.06.18.06.12 0 .24-.06.3-.121.06-.244 0-.487-.12-.548z" fill="#231F20" stroke="#000" stroke-miterlimit="10"/></svg>
